!!!OTL: Die Geburt im Grabe Eine Landmannsfrau ging schwanger,
!!!ARE: Europa, Mitteleuropa, Deutschland (), Brandenburg, Luebben, Schoenwalde
!!!YOR: 5, S. 220
!!    ????
!!!SCT: Q0109A
!!!YEM: Copyright 1995, estate of Helmut Schaffrath.
**kern
*ICvox
*Ivox
*M6/8
*k[b-]
*F:
{16f
16a
=1
4cc
8cc
4a
8f
=2
8f
4e
4r}
{16g
16g
=3
4b-
8g
8f
8cc
8b-
=4
8b-
4a
4r}
{8f
=5
4dd
8dd
4dd
8dd
=6
8a
4cc
4r}
{8ff
=7
8cc
8a
8cc
8b-
8a
8g
=8
8g
4f
4r}
==
!!!AGN: Ballade, Schein - Tod, Geburt, Grab, Auferstehen; Zeitungs - Lied
!!!ONB: ESAC (Essen Associative Code) Database: BALLADE
!!!AMT: compound duple
!!!AIN: vox
!!!EED: Helmut Schaffrath
!!!EEV: 1.0
*-
